!!!OTL: DORT BEIM SEE DA DRUNT
!!!ARE: Europa, Mitteleuropa, Oesterreich, Steiermark
!!!SCT: E0177
!!!YEM: Copyright 1995, estate of Helmut Schaffrath.
**kern
*ICvox
*Ivox
*M3/4
*k[]
*C:
=1
{2G
4e
=2
8E
8c
2G}
=3
{8G
8G
4B
8G
8f
=4
2e}
{8E
8c
=5
8B
8F
4B
8G
8d
=6
8c
8E
4c}
{8G
8c
=7
8B
8f
4B
8f
8B
=8
8c
8e
2g}
=9
{4.A
8f
8A
8f
=10
8e
8G
4e}
{8G
8e
=11
2d
8G
8d
=12
2c
4r}
==
!!!AGN: erzaehlendes Volks - Lied, Sage, Pflanzen - Maerchen
!!!ONB: ESAC (Essen Associative Code) Database: ERK1
!!!AMT: simple triple
!!!AIN: vox
!!!EED: Helmut Schaffrath
!!!EEV: 1.0
*-
